X:1
T:Lord Banff's
L:1/8
M:4/4
I:linebreak $
K:E
V:1 treble 
V:1
 ECB,C E2 Gc | BEGE FECF | ECB,C E2 Gc | BGFG (3EEE E2 :| egbg agfe |$ (3fga ge fc c2 | egbg agfe | %7
 fegf (3eee e2 | e2 b2 a2 g2 | (3fga ge fdec |$ (3BBB BA GBec | BGFG (3EEE E2 || %12
